X: 3024
T: Lads of saltcots
N: Pub: J. Walsh, London, 1748
Z: 2012 John Chambers <jc:trillian.mit.edu>
M: C
L: 1/8
K: A
V: 1
|: A3c BABc | AFEF B/B/BB2 | A3c BABc | AFEF A/A/AA2 :|
|: (ef/g/ a)c TBA(Bc) | (ef/g/ a)c B/B/BB2 | (e/f/g) ac TBABc | AFEF A/A/AA2 :|
V: 2 clef=bass middle=d
|: a2A2 e2E2 | d2cd e2E2 | a2A2 e2E2 | d2e2 a2A2 :|
|: A2A2 A2A2 | A2A2 e2E2 | a2A2 e2E2 | d2e2 a2A2 :|
%%begintext align
The 1st Cu. Hey with the 2d Man .|
then with the 2d Wo. :|
Gallop down the Middle up again & cast off .|.
Right & Left at top :|:
%%endtext

%%newpage
%%sep 1 1 500
%%sep 1 1 500

